packages/kaspersky-hexa-ui-icons/src/iconsSVGs/24/Reload.svg

<svg width="24" height="24" viewBox="0 0 24 24" fill="none" xmlns="http://www.w3.org/2000/svg">
<path d="M18.4643 7C16.9766 5.1723 14.6904 4 12.1229 4C7.62391 4 4 7.59446 4 12C4 16.4055 7.62391 20 12.1229 20C15.9701 20 19.1823 17.3683 20.0277 13.8501C20.1567 13.3131 20.6966 12.9824 21.2336 13.1114C21.7706 13.2405 22.1014 13.7804 21.9723 14.3174C20.9118 18.7309 16.8984 22 12.1229 22C6.545 22 2 17.5356 2 12C2 6.46441 6.545 2 12.1229 2C15.3028 2 18.1433 3.44932 20 5.71879V4C20 3.44772 20.4477 3 21 3C21.5523 3 22 3.44772 22 4V8C22 8.55228 21.5523 9 21 9H17C16.4477 9 16 8.55228 16 8C16 7.44772 16.4477 7 17 7H18.4643Z" fill="black"/>
</svg>

<svg xmlns="http://www.w3.org/2000/svg" width="24" height="24" fill="none" viewBox="0 0 24 24"><path fill="#000" d="M18.4643 7c-1.4877-1.8277-3.7739-3-6.3414-3C7.6239 4 4 7.5945 4 12s3.624 8 8.1229 8c3.8472 0 7.0594-2.6317 7.9048-6.1499.129-.537.6689-.8677 1.2059-.7387s.8678.669.7387 1.206C20.9118 18.7309 16.8984 22 12.1229 22 6.545 22 2 17.5356 2 12S6.545 2 12.1229 2C15.3028 2 18.1433 3.4493 20 5.7188V4c0-.5523.4477-1 1-1s1 .4477 1 1v4c0 .5523-.4477 1-1 1h-4c-.5523 0-1-.4477-1-1s.4477-1 1-1z"/></svg>
